src/assets/images/002-check-1.svg

<svg width="48" height="48" viewBox="0 0 48 48" fill="none" xmlns="http://www.w3.org/2000/svg">
<path d="M20.7224 31.5C20.554 31.5001 20.3878 31.4625 20.2359 31.3898C20.084 31.3171 19.9504 31.2112 19.8449 31.08L12.3449 21.69C12.2345 21.5797 12.1483 21.4476 12.0917 21.3022C12.0351 21.1567 12.0094 21.0011 12.0162 20.8451C12.023 20.6892 12.0622 20.5364 12.1313 20.3965C12.2003 20.2565 12.2977 20.1324 12.4173 20.0322C12.5369 19.9319 12.6761 19.8576 12.826 19.814C12.9758 19.7704 13.1331 19.7585 13.2878 19.779C13.4425 19.7995 13.5913 19.8519 13.7247 19.933C13.858 20.0141 13.973 20.1221 14.0624 20.25L20.5799 28.38C22.9649 24.6075 30.2774 14.25 42.1574 8.71501C42.4258 8.60333 42.727 8.59986 42.9978 8.70533C43.2687 8.8108 43.4883 9.01703 43.6104 9.28079C43.7326 9.54456 43.748 9.84537 43.6533 10.1202C43.5585 10.395 43.3611 10.6225 43.1024 10.755C29.3699 17.1525 21.7499 30.75 21.7049 30.915C21.617 31.0772 21.4901 31.215 21.3355 31.3158C21.181 31.4167 21.0038 31.4774 20.8199 31.4925L20.7224 31.5Z" fill="#888888"/>
<path d="M28.1476 41.0101H14.3701C11.6854 41.0081 9.11123 39.9407 7.21285 38.0423C5.31448 36.1439 4.2471 33.5698 4.24512 30.8851V17.1151C4.2471 14.4303 5.31448 11.8562 7.21285 9.9578C9.11123 8.05942 11.6854 6.99204 14.3701 6.99006H28.1476C29.8783 6.97945 31.5827 7.4133 33.0976 8.25006C33.3582 8.39626 33.55 8.63998 33.6309 8.92762C33.7118 9.21525 33.6751 9.52323 33.5289 9.78381C33.3827 10.0444 33.1389 10.2362 32.8513 10.3171C32.5637 10.398 32.2557 10.3613 31.9951 10.2151C30.8201 9.55549 29.4951 9.20939 28.1476 9.21006H14.3701C12.2821 9.21204 10.2803 10.0424 8.80384 11.5188C7.32743 12.9952 6.4971 14.9971 6.49512 17.0851V30.8851C6.4971 32.973 7.32743 34.9749 8.80384 36.4513C10.2803 37.9277 12.2821 38.7581 14.3701 38.7601H28.1476C30.2311 38.7502 32.226 37.9166 33.6972 36.4412C35.1683 34.9659 35.9962 32.9685 36.0001 30.8851V19.1551C36.0001 18.8567 36.1186 18.5705 36.3296 18.3596C36.5406 18.1486 36.8267 18.0301 37.1251 18.0301C37.4235 18.0301 37.7096 18.1486 37.9206 18.3596C38.1316 18.5705 38.2501 18.8567 38.2501 19.1551V30.8851C38.2481 33.5659 37.1839 36.1367 35.2903 38.0344C33.3968 39.9321 30.8284 41.0021 28.1476 41.0101Z" fill="#888888"/>
</svg>

<svg xmlns="http://www.w3.org/2000/svg" width="48" height="48" fill="none" viewBox="0 0 48 48"><path fill="#888" d="M20.722 31.5a1.13 1.13 0 0 1-.877-.42l-7.5-9.39a1.125 1.125 0 1 1 1.717-1.44l6.518 8.13c2.385-3.772 9.697-14.13 21.577-19.665a1.125 1.125 0 0 1 .945 2.04C29.37 17.152 21.75 30.75 21.705 30.915a1.11 1.11 0 0 1-.885.578z"/><path fill="#888" d="M28.148 41.01H14.37A10.133 10.133 0 0 1 4.245 30.885v-13.77A10.13 10.13 0 0 1 14.37 6.99h13.778a10.1 10.1 0 0 1 4.95 1.26 1.127 1.127 0 1 1-1.103 1.965 7.85 7.85 0 0 0-3.847-1.005H14.37a7.883 7.883 0 0 0-7.875 7.875v13.8a7.88 7.88 0 0 0 7.875 7.875h13.778A7.89 7.89 0 0 0 36 30.885v-11.73a1.125 1.125 0 1 1 2.25 0v11.73A10.13 10.13 0 0 1 28.148 41.01"/></svg>
